X: 7771
T: Come Again You're Welcome
R: reel
M: 4/4
K: Dmajor
B|"D"AFED "G"G2 GB|"D"AFED "A"E2 EB|"D"AGFD "G"GABd|"A"AGFE "D"DdcB|
"D"AFED "G"G2 GB|"D"AFED "A"E2 EB|"D"AGFD "G"GABd|"A"Agfe "D"d2 d||
A|"D"defd "A"gfec|"D"defd "A"ec~BA|"D"defd "G"gfeg|"A"f/g/a ef "D"d2 dA|
"D"defd "A"gfec|"D"defa "A"ec~BA|"D"defd "Em"gfeg|"A"faef "D"de B||

